icon-themes/colibre_svg/cmd/ar/lc_alphaliststyle.svg

<svg viewBox="0 0 24 24" xmlns="http://www.w3.org/2000/svg"><path d="m1.515625 2c-.277 0-.5.223-.5.5s.223.5.5.5h14c.277 0 .5-.223.5-.5s-.223-.5-.5-.5zm6 3c-.277 0-.5.223-.5.5s.223.5.5.5h8c.277 0 .5-.223.5-.5s-.223-.5-.5-.5zm-6.1074219 5c-.2172433 0-.3925781.175335-.3925781.392578v.214844c0 .217243.1753348.392578.3925781.392578h14.2148439c.217243 0 .392578-.175335.392578-.392578v-.214844c0-.217243-.175335-.392578-.392578-.392578zm6.1074219 3c-.277 0-.5.223-.5.5s.223.5.5.5h8c.277 0 .5-.223.5-.5s-.223-.5-.5-.5zm-6.0644531 5c-.2417883 0-.4355469.193759-.4355469.435547v.128906c0 .241788.1937586.435547.4355469.435547h14.1269531c.241788 0 .4375-.193759.4375-.435547v-.128906c0-.241788-.195712-.435547-.4375-.435547zm6.0644531 3c-.277 0-.5.223-.5.5s.223.5.5.5h8c.277 0 .5-.223.5-.5s-.223-.5-.5-.5z" fill="#808080"/><path d="m18.957031 2-1.957031 6h.816406c.094391 0 .169929-.024073.226563-.0722656.056633-.0512047.099983-.1141518.126953-.1894532l.339844-1.1796874h1.976562l.335938 1.1757812c.021573.0662653.06297.1263651.125.1835938.059333.0542166.133661.0820312.222656.0820312h.830078l-1.957031-6zm.546875 1.09375c.03236.1475903.066501.2836503.101563.4101562.03506.1265061.067989.2367047.097656.3300782l.544922 1.8925781h-1.496094l.544922-1.8964844c.03236-.0933734.0665-.2026779.101563-.3261719.03506-.126506.07041-.2625659.105468-.4101562zm-1.503906 6.90625v6h2.050781c.313236 0 .588914-.04351.830078-.130859.243936-.090362.44778-.214468.611329-.371094.16632-.159639.292974-.347585.378906-.564453.085932-.216867.128906-.45296.128906-.708985 0-.695783-.355955-1.137472-1.068359-1.324218.163548-.063253.303497-.140107.419921-.230469.119197-.093373.216172-.195195.291016-.306641.074847-.111446.129982-.23181.166016-.361328.036033-.129518.054687-.263789.054687-.402344 0-.243975-.038437-.464373-.113281-.660156-.072072-.198795-.188833-.367305-.349609-.505859-.158004-.138555-.362983-.245012-.615235-.320313s-.55534-.113281-.910156-.113281zm1.09375.912109h.78125c.310464 0 .537496.062948.681641.189453.144144.123494.216797.339256.216797.646485-.000001.295181-.08368.507201-.25.636719-.166321.126506-.403246.191406-.710938.191406h-.71875zm0 2.480469h.931641c.16632 0 .30627.019434.419921.058594.116425.036144.208044.088926.277344.158203.072071.069277.123804.154509.154297.253906.033267.099398.050781.210491.050781.333985 0 .114458-.015248.225551-.042968.333984-.02772.105422-.075232.199925-.144532.28125-.066528.081325-.158966.145166-.27539.193359-.116424.048194-.260911.072266-.435547.072266h-.935547z" fill="#4d82b8"/></svg>

<svg viewBox="0 0 24 24" xmlns="http://www.w3.org/2000/svg">
  <path
     style="fill:#808080"
     d="M 1.515625 2 C 1.238625 2 1.015625 2.223 1.015625 2.5 C 1.015625 2.777 1.238625 3 1.515625 3 L 15.515625 3 C 15.792625 3 16.015625 2.777 16.015625 2.5 C 16.015625 2.223 15.792625 2 15.515625 2 L 1.515625 2 z M 7.515625 5 C 7.238625 5 7.015625 5.223 7.015625 5.5 C 7.015625 5.777 7.238625 6 7.515625 6 L 15.515625 6 C 15.792625 6 16.015625 5.777 16.015625 5.5 C 16.015625 5.223 15.792625 5 15.515625 5 L 7.515625 5 z M 1.4082031 10 C 1.1909598 10 1.015625 10.175335 1.015625 10.392578 L 1.015625 10.607422 C 1.015625 10.824665 1.1909598 11 1.4082031 11 L 15.623047 11 C 15.84029 11 16.015625 10.824665 16.015625 10.607422 L 16.015625 10.392578 C 16.015625 10.175335 15.84029 10 15.623047 10 L 1.4082031 10 z M 7.515625 13 C 7.238625 13 7.015625 13.223 7.015625 13.5 C 7.015625 13.777 7.238625 14 7.515625 14 L 15.515625 14 C 15.792625 14 16.015625 13.777 16.015625 13.5 C 16.015625 13.223 15.792625 13 15.515625 13 L 7.515625 13 z M 1.4511719 18 C 1.2093836 18 1.015625 18.193759 1.015625 18.435547 L 1.015625 18.564453 C 1.015625 18.806241 1.2093836 19 1.4511719 19 L 15.578125 19 C 15.819913 19 16.015625 18.806241 16.015625 18.564453 L 16.015625 18.435547 C 16.015625 18.193759 15.819913 18 15.578125 18 L 1.4511719 18 z M 7.515625 21 C 7.238625 21 7.015625 21.223 7.015625 21.5 C 7.015625 21.777 7.238625 22 7.515625 22 L 15.515625 22 C 15.792625 22 16.015625 21.777 16.015625 21.5 C 16.015625 21.223 15.792625 21 15.515625 21 L 7.515625 21 z "
     />
  <path
     style="fill:#4d82b8"
     d="M 18.957031 2 L 17 8 L 17.816406 8 C 17.910797 8 17.986335 7.975927 18.042969 7.9277344 C 18.099602 7.8765297 18.142952 7.8135826 18.169922 7.7382812 L 18.509766 6.5585938 L 20.486328 6.5585938 L 20.822266 7.734375 C 20.843839 7.8006403 20.885236 7.8607401 20.947266 7.9179688 C 21.006599 7.9721854 21.080927 8 21.169922 8 L 22 8 L 20.042969 2 L 18.957031 2 z M 19.503906 3.09375 C 19.536266 3.2413403 19.570407 3.3774003 19.605469 3.5039062 C 19.640529 3.6304123 19.673458 3.7406109 19.703125 3.8339844 L 20.248047 5.7265625 L 18.751953 5.7265625 L 19.296875 3.8300781 C 19.329235 3.7367047 19.363375 3.6274002 19.398438 3.5039062 C 19.433498 3.3774002 19.468848 3.2413403 19.503906 3.09375 z M 18 10 L 18 16 L 20.050781 16 C 20.364017 16 20.639695 15.95649 20.880859 15.869141 C 21.124795 15.778779 21.328639 15.654673 21.492188 15.498047 C 21.658508 15.338408 21.785162 15.150462 21.871094 14.933594 C 21.957026 14.716727 22 14.480634 22 14.224609 C 22 13.528826 21.644045 13.087137 20.931641 12.900391 C 21.095189 12.837138 21.235138 12.760284 21.351562 12.669922 C 21.470759 12.576549 21.567734 12.474727 21.642578 12.363281 C 21.717425 12.251835 21.77256 12.131471 21.808594 12.001953 C 21.844627 11.872435 21.863281 11.738164 21.863281 11.599609 C 21.863281 11.355634 21.824844 11.135236 21.75 10.939453 C 21.677928 10.740658 21.561167 10.572148 21.400391 10.433594 C 21.242387 10.295039 21.037408 10.188582 20.785156 10.113281 C 20.532904 10.03798 20.229816 10 19.875 10 L 18 10 z M 19.09375 10.912109 L 19.875 10.912109 C 20.185464 10.912109 20.412496 10.975057 20.556641 11.101562 C 20.700785 11.225056 20.773438 11.440818 20.773438 11.748047 C 20.773437 12.043228 20.689758 12.255248 20.523438 12.384766 C 20.357117 12.511272 20.120192 12.576172 19.8125 12.576172 L 19.09375 12.576172 L 19.09375 10.912109 z M 19.09375 13.392578 L 20.025391 13.392578 C 20.191711 13.392578 20.331661 13.412012 20.445312 13.451172 C 20.561737 13.487316 20.653356 13.540098 20.722656 13.609375 C 20.794727 13.678652 20.84646 13.763884 20.876953 13.863281 C 20.91022 13.962679 20.927734 14.073772 20.927734 14.197266 C 20.927734 14.311724 20.912486 14.422817 20.884766 14.53125 C 20.857046 14.636672 20.809534 14.731175 20.740234 14.8125 C 20.673706 14.893825 20.581268 14.957666 20.464844 15.005859 C 20.34842 15.054053 20.203933 15.078125 20.029297 15.078125 L 19.09375 15.078125 L 19.09375 13.392578 z "
     />
</svg>
